X: 6
T:Al Gemali
C: Nachamia Sharabi 1958
O:Israel
I:taught by Moshe Eskayo
F: http://www.youtube.com/watch?v=loyOXvWthZQ
F: http://www.youtube.com/watch?v=E9gCUVh9aW4
Z:Seymour Shlien fy733@ncf.ca
L:1/8
M:4/4
Q:1/4=120
K:Gm
"Gm"d3 c "Cm"e2 f2|"Gm"d2 BG AF G2         |d3 c "Cm"e2 f2|"Gm"d2 BG "Dm"A4|\
"Cm"c3 B "Bb"d2 ef|"Gm"d3e dcd2            |dccB BABc     |d8              | 
"Cm"c3 B "Bb"d2 ef|"Gm"d3e dcd2            |dccB BAAG     |G8              |\
"Gm"g3f "Cm"gfe2  |"Gm"d2 c/B/c d/e/d/c/ d2|g3 f b2 a2    |g2 dc d4        |
g3 f ef g2        |Bcde dc d2              |dc cB BA Bc   |d8              |\
"F"ABcB "Gm"BAAG  |G6 z2                   |



